X: 76
T:Liberty
% Nottingham Music Database
S:John Lagden, via EF
M:4/4
L:1/4
K:D
"D"D3/2E/2 Dd|"D"AF Ad|"D"D3/2E/2 Dd|"D"AF "A7"G/2F/2E/2D/2|"D"D3/2E/2 Dd|\
"D"AF Ad|"A7"ed e/2g/2f/2e/2|"D"dd d2:|
"D"fd de/2f/2|"G"gf ed|"Em"cA ec|"A7"cA eg|"D"fd de/2f/2|"G"gf ed|\
"A7"cd e/2g/2f/2e/2|"D"d/2d/2d d2:|<end>
<start>
